src/actions/symbolic/path-union-symbolic.svg

<?xml version="1.0" encoding="UTF-8" standalone="no"?>
<svg
   xmlns:dc="http://purl.org/dc/elements/1.1/"
   xmlns:cc="http://creativecommons.org/ns#"
   xmlns:rdf="http://www.w3.org/1999/02/22-rdf-syntax-ns#"
   xmlns:svg="http://www.w3.org/2000/svg"
   xmlns="http://www.w3.org/2000/svg"
   version="1.1"
   width="16"
   height="16"
   id="svg7435">
  <defs
     id="defs7437" />
  <metadata
     id="metadata7440">
    <rdf:RDF>
      <cc:Work
         rdf:about="">
        <dc:format>image/svg+xml</dc:format>
        <dc:type
           rdf:resource="http://purl.org/dc/dcmitype/StillImage" />

      </cc:Work>
    </rdf:RDF>
  </metadata>
  <path
     id="path8335-7-6-6"
     d="M 10.173828,0.001953 A 6.0000006,6.0000022 0 0 0 4.0898438,5 H 1 C 0.446,5 0,5.446 0,6 v 9 c 0,0.554 0.446,1 1,1 h 9 c 0.554,0 1,-0.446 1,-1 V 11.916016 A 6.0000006,6.0000022 0 0 0 16,6 6.0000006,6.0000022 0 0 0 10.173828,0.001953 Z m -0.02734,1 A 5.0000005,5.0000018 0 0 1 15,6 5.0000005,5.0000018 0 0 1 10,10.996094 V 14.5 C 10,14.777 9.777,15 9.5,15 h -8 C 1.223,15 1,14.777 1,14.5 v -8 C 1,6.223 1.223,6 1.5,6 H 5 a 5.0000005,5.0000018 0 0 1 5.146484,-4.998047 z"
     style="opacity:1;vector-effect:none;fill:#2e3440;fill-opacity:1;stroke:none;stroke-width:1;stroke-linecap:butt;stroke-linejoin:miter;stroke-miterlimit:4;stroke-dasharray:none;stroke-dashoffset:0;stroke-opacity:1;marker:none;paint-order:normal" />
  <path
     id="rect5505-21-8-4-7-1"
     d="M 10.146484,1.001953 A 5.0000005,5.0000018 0 0 0 5,6 H 1.5 C 1.223,6 1,6.223 1,6.5 v 8 C 1,14.777 1.223,15 1.5,15 h 8 C 9.777,15 10,14.777 10,14.5 V 10.996094 A 5.0000005,5.0000018 0 0 0 15,6 5.0000005,5.0000018 0 0 0 10.146484,1.001953 Z"
     style="color:#000000;display:inline;overflow:visible;visibility:visible;opacity:0.25;vector-effect:none;fill:#2e3440;fill-opacity:1;fill-rule:nonzero;stroke:none;stroke-width:1;stroke-linecap:round;stroke-linejoin:round;stroke-miterlimit:4;stroke-dasharray:none;stroke-dashoffset:0;stroke-opacity:1;marker:none;paint-order:normal;enable-background:accumulate" />
</svg>

<svg width="16" height="16" version="1.1" xmlns="http://www.w3.org/2000/svg" xmlns:cc="http://creativecommons.org/ns#" xmlns:dc="http://purl.org/dc/elements/1.1/" xmlns:rdf="http://www.w3.org/1999/02/22-rdf-syntax-ns#">
 <metadata>
  <rdf:RDF>
   <cc:Work rdf:about="">
    <dc:format>image/svg+xml</dc:format>
    <dc:type rdf:resource="http://purl.org/dc/dcmitype/StillImage"/>
   </cc:Work>
  </rdf:RDF>
 </metadata>
 <path d="m10.174 0.001953a6 6 0 0 0-6.084 4.998h-3.0898c-0.554 0-1 0.446-1 1v9c0 0.554 0.446 1 1 1h9c0.554 0 1-0.446 1-1v-3.084a6 6 0 0 0 5-5.916 6 6 0 0 0-5.8262-5.998zm-0.02734 1a5 5 0 0 1 4.8535 4.998 5 5 0 0 1-5 4.9961v3.5039c0 0.277-0.223 0.5-0.5 0.5h-8c-0.277 0-0.5-0.223-0.5-0.5v-8c0-0.277 0.223-0.5 0.5-0.5h3.5a5 5 0 0 1 5.1465-4.998z" fill="#2e3440" style="paint-order:normal"/>
 <path d="m10.146 1.002a5 5 0 0 0-5.1465 4.998h-3.5c-0.277 0-0.5 0.223-0.5 0.5v8c0 0.277 0.223 0.5 0.5 0.5h8c0.277 0 0.5-0.223 0.5-0.5v-3.5039a5 5 0 0 0 5-4.9961 5 5 0 0 0-4.8535-4.998z" color="#000000" fill="#2e3440" opacity=".25" style="paint-order:normal"/>
</svg>
